X:5150
T:Planxty Lumen
O:england
C:Written by Ruth Temple, 8/16/96, a birthday waltz
M:3/4
A:Aptos, California
N:Note that as it came to me it's clear that the second-to-last
N:measure of the A part should be played differently every time
K:G
GA |: B3 A Bc | de d2 ef|g2 f2 e2|d3 d cB|cd edcB|AB cd Bc|AB AF GE|F2 D
2 GA :|
| d4 B2 | c>d e3 f | ga fg ef|d3 gf|ef e2 ed|cB c2 dc|BA GB cA|G4 Bc :||


